src/assets/svg/collapse.svg

<svg width="30" height="30" viewBox="0 0 30 30" fill="none" xmlns="http://www.w3.org/2000/svg">
<rect opacity="0.6" width="30" height="30" rx="3" fill="#252527"/>
<g opacity="0.4">
<path d="M19.1348 15.1211C19.4746 15.4609 19.4746 16.0118 19.1348 16.3516L14.5 20.9863L9.86523 16.3516C9.52545 16.0118 9.52545 15.4609 9.86523 15.1211C10.205 14.7813 10.7559 14.7813 11.0957 15.1211L14.5 18.5254L17.9043 15.1211C18.2441 14.7813 18.795 14.7813 19.1348 15.1211Z" fill="white"/>
<path d="M19.1348 9.49023C19.4746 9.83002 19.4746 10.3809 19.1348 10.7207L14.5 15.3555L9.86523 10.7207C9.52545 10.3809 9.52545 9.83002 9.86523 9.49023C10.205 9.15045 10.7559 9.15045 11.0957 9.49023L14.5 12.8945L17.9043 9.49023C18.2441 9.15045 18.795 9.15045 19.1348 9.49023Z" fill="white"/>
</g>
</svg>

<!-- Generated by IcoMoon.io -->
<svg version="1.1" xmlns="http://www.w3.org/2000/svg" width="30" height="30" viewBox="0 0 30 30">
<title>collapse</title>
<path fill="#252527" opacity="0.6" d="M3 0h24c1.657 0 3 1.343 3 3v24c0 1.657-1.343 3-3 3h-24c-1.657 0-3-1.343-3-3v-24c0-1.657 1.343-3 3-3z"></path>
<path fill="#fff" opacity="0.4" d="M19.135 15.121c0.34 0.34 0.34 0.891 0 1.23l-4.635 4.635-4.635-4.635c-0.34-0.34-0.34-0.891 0-1.23s0.891-0.34 1.23 0l3.404 3.404 3.404-3.404c0.34-0.34 0.891-0.34 1.23 0z"></path>
<path fill="#fff" opacity="0.4" d="M19.135 9.49c0.34 0.34 0.34 0.891 0 1.23l-4.635 4.635-4.635-4.635c-0.34-0.34-0.34-0.891 0-1.23s0.891-0.34 1.23 0l3.404 3.404 3.404-3.404c0.34-0.34 0.891-0.34 1.23 0z"></path>
</svg>
